assets/build/img/logo__apps.svg

<svg width="131" height="131" viewBox="0 0 131 131" fill="none" xmlns="http://www.w3.org/2000/svg">
<path d="M9.03448 0H72.2759C77.2646 0 81.3103 4.04575 81.3103 9.03448V121.966C81.3103 126.954 77.2646 131 72.2759 131H9.03448C4.04575 131 0 126.954 0 121.966V9.03448C0 4.04575 4.04575 0 9.03448 0Z" fill="white"/>
<path d="M126.482 18.069H76.7926C74.2997 18.0774 72.2839 20.0933 72.2754 22.5862V49.6897C72.2839 52.1826 74.2997 54.1984 76.7926 54.2069H90.3443V67.7586L103.896 54.2069H126.482C128.975 54.1984 130.991 52.1826 131 49.6897V22.5862C130.991 20.0933 128.975 18.0774 126.482 18.069Z" fill="#FDD762"/>
<path d="M63.2418 58.7241V88.0862C63.2418 89.3341 62.231 90.3448 60.9831 90.3448H20.328C19.0801 90.3448 18.0693 89.3341 18.0693 88.0862V58.7241H63.2418Z" fill="#FDD762"/>
<path d="M47.4307 49.6897H63.241V58.7242H47.4307V49.6897Z" fill="#FDD762"/>
<path d="M56.4659 40.6552L63.2418 49.6896H47.4314H33.8797H18.0693L24.8452 40.6552H56.4659Z" fill="#FDD762"/>
<path d="M58.7239 0V6.77586C58.7239 8.02375 57.7131 9.03448 56.4653 9.03448H24.8446C23.5967 9.03448 22.5859 8.02375 22.5859 6.77586V0H58.7239Z" fill="#FDD762"/>
<path d="M47.4306 58.7242V67.7587L40.6548 63.2414L33.8789 67.7587V58.7242V49.6897H47.4306V58.7242Z" fill="#FDD762"/>
<path d="M18.0693 49.6897H33.8797V58.7242H18.0693V49.6897Z" fill="#FDD762"/>
<path d="M58.2726 39.3001C57.8463 38.7326 57.1772 38.3966 56.4657 38.3966H24.845C24.1336 38.3966 23.4644 38.7326 23.0381 39.3001L16.2623 48.3345C15.9686 48.7241 15.8105 49.2013 15.8105 49.6897V88.0863C15.8105 90.582 17.832 92.6035 20.3278 92.6035H60.983C63.4787 92.6035 65.5002 90.582 65.5002 88.0863V49.6897C65.5002 49.2013 65.3421 48.7241 65.0485 48.3345L58.2726 39.3001ZM25.9743 42.9138H55.3364L58.7243 47.4311H22.5864L25.9743 42.9138ZM31.6209 56.4656H20.3278V51.9483H31.6209V56.4656ZM36.1381 51.9483H45.1726V63.5379L41.9089 61.364C41.1494 60.8586 40.1613 60.8586 39.4018 61.364L36.1381 63.5379V51.9483ZM49.6899 51.9483H60.983V56.4656H49.6899V51.9483ZM20.3278 88.0863V60.9828H31.6209V67.7587C31.6209 69.0066 32.6316 70.0173 33.8795 70.0173C34.3256 70.0173 34.7632 69.8846 35.133 69.6362L40.6554 65.9518L46.1777 69.6333C47.2167 70.325 48.617 70.0455 49.3087 69.0094C49.5543 68.6395 49.687 68.2048 49.6899 67.7587V60.9828H60.983V88.0863H20.3278Z" fill="#B48728"/>
<path d="M29.3623 103.897H33.8796V108.414H29.3623V103.897Z" fill="#FDD762"/>
<path d="M38.3965 103.897H42.9137V108.414H38.3965V103.897Z" fill="#FDD762"/>
<path d="M47.4307 103.897H51.9479V108.414H47.4307V103.897Z" fill="#FDD762"/>
</svg>

<svg width="131" height="131" fill="none" xmlns="http://www.w3.org/2000/svg"><path d="M9.034 0h63.242a9.036 9.036 0 019.034 9.034v112.932A9.036 9.036 0 0172.276 131H9.034A9.036 9.036 0 010 121.966V9.034A9.036 9.036 0 019.034 0z" fill="#fff"/><path d="M126.482 18.069h-49.69a4.53 4.53 0 00-4.517 4.517V49.69a4.53 4.53 0 004.518 4.517h13.551v13.552l13.552-13.552h22.586A4.532 4.532 0 00131 49.69V22.586a4.531 4.531 0 00-4.518-4.517zM63.242 58.724v29.362a2.258 2.258 0 01-2.259 2.259H20.328a2.258 2.258 0 01-2.259-2.259V58.724h45.173zM47.43 49.69h15.811v9.034h-15.81V49.69zM56.466 40.655l6.776 9.035H18.07l6.775-9.035h31.62zM58.724 0v6.776a2.258 2.258 0 01-2.259 2.258h-31.62a2.258 2.258 0 01-2.26-2.258V0h36.139z" fill="#FDD762"/><path d="M47.43 58.724v9.035l-6.775-4.518-6.776 4.518V49.69H47.43v9.034z" fill="#FDD762"/><path d="M18.07 49.69h15.81v9.034H18.07V49.69z" fill="#FDD762"/><path d="M58.273 39.3a2.261 2.261 0 00-1.807-.903H24.845c-.711 0-1.38.336-1.807.903l-6.776 9.035c-.293.39-.452.866-.452 1.355v38.396a4.516 4.516 0 004.518 4.517h40.655a4.516 4.516 0 004.517-4.517V49.69c0-.489-.158-.966-.451-1.355L58.273 39.3zm-32.299 3.614h29.362l3.388 4.517H22.586l3.388-4.517zm5.647 13.552H20.328v-4.518H31.62v4.518zm4.517-4.518h9.035v11.59l-3.264-2.174a2.262 2.262 0 00-2.507 0l-3.264 2.174v-11.59zm13.552 0h11.293v4.518H49.69v-4.518zM20.328 88.086V60.983H31.62v6.776a2.258 2.258 0 003.512 1.877l5.522-3.684 5.523 3.681a2.258 2.258 0 003.512-1.874v-6.776h11.293v27.103H20.328z" fill="#B48728"/><path d="M29.362 103.897h4.518v4.517h-4.518v-4.517zM38.397 103.897h4.517v4.517h-4.517v-4.517zM47.43 103.897h4.518v4.517H47.43v-4.517z" fill="#FDD762"/></svg>
